src/assets/clients/atlasos.svg

<svg width="137" height="31" viewBox="0 0 137 31" fill="none" xmlns="http://www.w3.org/2000/svg">
<g clip-path="url(#clip0_1_431)">
<path d="M18.2435 0.481201L35.6325 30.4812H0.853516L4.52952 24.1382H24.6035L18.2435 13.1662L15.5725 17.7752H8.21852L18.2435 0.481201ZM43.6975 24.7002L50.8575 5.7112H56.8235L63.9825 24.7002H58.6825L57.5445 21.4102H49.9415L48.8035 24.7002H43.6975ZM51.1345 17.7072H56.3245L54.9645 13.6992L54.6865 12.9532C54.5907 12.6287 54.489 12.306 54.3815 11.9852L54.1035 10.9352C54.0244 10.6273 53.932 10.3231 53.8265 10.0232H53.6315C53.5575 10.3732 53.4465 10.7692 53.2985 11.2112C53.1692 11.6539 53.0305 12.0962 52.8825 12.5382C52.7525 12.9809 52.6325 13.3679 52.5225 13.6992L51.1345 17.7072ZM68.7575 24.7002V9.7742H62.5695V5.7112H79.9125V9.7742H73.7245V24.7012L68.7575 24.7002ZM82.7095 24.7002V5.7112H87.6775V20.6372H97.3615V24.7002H82.7095ZM98.1405 24.7002L105.3 5.7112H111.266L118.426 24.7002H113.125L111.988 21.4102H104.384L103.246 24.7002H98.1405ZM105.577 17.7072H110.767L109.407 13.6992L109.129 12.9532C109.033 12.6287 108.931 12.3059 108.824 11.9852L108.547 10.9352C108.454 10.5852 108.361 10.2812 108.269 10.0232H108.075C108.001 10.3732 107.89 10.7692 107.742 11.2112C107.612 11.6539 107.473 12.0962 107.326 12.5382C107.196 12.9809 107.075 13.3679 106.965 13.6992L105.577 17.7072ZM128.612 25.0312C127.41 25.0312 126.281 24.9209 125.227 24.7002C124.172 24.4975 123.238 24.1565 122.424 23.6772C121.647 23.2179 120.999 22.5716 120.537 21.7972C120.074 21.0045 119.843 20.0372 119.843 18.8952V18.6472C119.843 18.5545 119.852 18.4809 119.871 18.4262H124.672C124.672 18.4809 124.662 18.5542 124.644 18.6462V18.8402C124.644 19.4302 124.792 19.9092 125.088 20.2772C125.402 20.6272 125.837 20.8852 126.392 21.0512C126.947 21.1985 127.595 21.2722 128.335 21.2722C128.741 21.2722 129.121 21.2539 129.473 21.2172C129.793 21.1868 130.109 21.1221 130.416 21.0242C130.694 20.9322 130.934 20.8215 131.138 20.6922C131.36 20.5455 131.517 20.3795 131.609 20.1942C131.72 19.9915 131.776 19.7615 131.776 19.5042C131.776 19.0802 131.609 18.7302 131.276 18.4542C130.962 18.1769 130.527 17.9462 129.972 17.7622C129.369 17.5596 128.758 17.3844 128.141 17.2372C127.456 17.0719 126.744 16.8969 126.004 16.7122C125.276 16.5322 124.562 16.3013 123.867 16.0212C123.203 15.7558 122.577 15.4027 122.008 14.9712C121.467 14.5435 121.022 14.0064 120.704 13.3952C120.389 12.7505 120.232 11.9765 120.232 11.0732C120.232 10.0779 120.444 9.2212 120.87 8.5032C121.294 7.76809 121.894 7.15043 122.618 6.7062C123.376 6.2462 124.246 5.91453 125.227 5.7112C126.207 5.48987 127.252 5.3792 128.363 5.3792C129.454 5.3792 130.471 5.48987 131.415 5.7112C132.377 5.93253 133.228 6.28253 133.968 6.7612C134.683 7.19465 135.275 7.80399 135.689 8.5312C136.114 9.2312 136.336 10.0785 136.355 11.0732V11.4052H131.582V11.2112C131.582 10.7879 131.461 10.4195 131.221 10.1062C130.999 9.7742 130.656 9.5162 130.194 9.3322C129.731 9.12953 129.158 9.0282 128.474 9.0282C127.788 9.0282 127.205 9.09253 126.725 9.2212C126.263 9.3512 125.902 9.53553 125.643 9.7742C125.527 9.88479 125.435 10.0179 125.373 10.1653C125.311 10.3127 125.28 10.4713 125.282 10.6312C125.282 11.0365 125.439 11.3682 125.754 11.6262C126.087 11.8849 126.531 12.1059 127.086 12.2892C127.641 12.4739 128.261 12.6492 128.945 12.8152C129.63 12.9619 130.333 13.1275 131.054 13.3122C131.794 13.4782 132.506 13.6992 133.191 13.9752C133.857 14.2238 134.483 14.5685 135.05 14.9982C135.605 15.4035 136.04 15.9102 136.355 16.5182C136.687 17.1262 136.853 17.8635 136.854 18.7302C136.854 20.2409 136.493 21.4569 135.772 22.3782C135.068 23.2995 134.088 23.9722 132.83 24.3962C131.591 24.8195 130.185 25.0312 128.612 25.0312Z" fill="#1A90FF"/>
</g>
<defs>
<clipPath id="clip0_1_431">
<rect width="136" height="30" fill="white" transform="translate(0.853516 0.481201)"/>
</clipPath>
</defs>
</svg>

<svg xmlns="http://www.w3.org/2000/svg" fill="none" viewBox="0 0 137 31"><g clip-path="url(#a)"><path fill="#1A90FF" d="m18.244.481 17.389 30H.852l3.677-6.343h20.073l-6.36-10.972-2.67 4.61H8.218L18.244.48Zm25.453 24.22 7.16-18.99h5.967l7.159 18.99h-5.3l-1.139-3.29h-7.602l-1.139 3.29h-5.105Zm7.438-6.994h5.19l-1.36-4.008-.279-.746a27.983 27.983 0 0 0-.304-.968l-.279-1.05c-.079-.308-.171-.612-.276-.912h-.195c-.075.35-.185.746-.334 1.188-.129.443-.267.885-.416 1.327-.13.443-.25.83-.36 1.161l-1.387 4.008ZM68.757 24.7V9.774H62.57V5.711h17.343v4.063h-6.188v14.927h-4.967Zm13.953 0V5.711h4.968v14.926h9.684V24.7H82.71Zm15.43 0 7.16-18.989h5.966l7.16 18.99h-5.301l-1.137-3.29h-7.604l-1.138 3.29h-5.105Zm7.437-6.993h5.19l-1.36-4.008-.278-.746a29.516 29.516 0 0 0-.305-.968l-.277-1.05c-.093-.35-.186-.654-.278-.912h-.194c-.074.35-.185.746-.333 1.188-.13.443-.269.885-.416 1.327-.13.443-.251.83-.361 1.161l-1.388 4.008Zm23.035 7.324c-1.202 0-2.331-.11-3.385-.33-1.055-.204-1.989-.544-2.803-1.024a5.392 5.392 0 0 1-1.887-1.88c-.463-.793-.694-1.76-.694-2.902v-.248c0-.092.009-.166.028-.22h4.801c0 .054-.01.127-.028.22v.193c0 .59.148 1.07.444 1.437.314.35.749.608 1.304.774.555.148 1.203.221 1.943.221.406 0 .786-.018 1.138-.055.32-.03.636-.095.943-.193.278-.092.518-.203.722-.332.222-.146.379-.313.471-.498.111-.203.167-.432.167-.69 0-.424-.167-.774-.5-1.05-.314-.277-.749-.508-1.304-.692a21.186 21.186 0 0 0-1.831-.525c-.685-.165-1.397-.34-2.137-.525-.728-.18-1.442-.41-2.137-.69a7.977 7.977 0 0 1-1.859-1.05 4.884 4.884 0 0 1-1.304-1.577c-.315-.644-.472-1.418-.472-2.322 0-.995.212-1.852.638-2.57a5.092 5.092 0 0 1 1.748-1.797c.758-.46 1.628-.791 2.609-.995.98-.221 2.025-.332 3.136-.332 1.091 0 2.108.11 3.052.332.962.222 1.813.572 2.553 1.05a4.91 4.91 0 0 1 1.721 1.77c.425.7.647 1.547.666 2.542v.332h-4.773v-.194c0-.423-.121-.792-.361-1.105-.222-.332-.565-.59-1.027-.774-.463-.202-1.036-.304-1.72-.304-.686 0-1.269.065-1.749.193-.462.13-.823.315-1.082.553a1.164 1.164 0 0 0-.361.857c0 .405.157.737.472.995.333.259.777.48 1.332.663.555.185 1.175.36 1.859.526.685.147 1.388.313 2.109.497.74.166 1.452.387 2.137.663a7.31 7.31 0 0 1 1.859 1.023c.555.405.99.912 1.305 1.52.332.608.498 1.345.499 2.212 0 1.51-.361 2.727-1.082 3.648-.704.921-1.684 1.594-2.942 2.018-1.239.424-2.645.635-4.218.635Z"/></g><defs><clipPath id="a"><path fill="#fff" d="M.854.481h136v30h-136z"/></clipPath></defs></svg>
